svgs/solid/skeleton.svg

<svg xmlns="http://www.w3.org/2000/svg" viewBox="0 0 512 512"><!-- Font Awesome Pro 5.15.3 by @fontawesome - https://fontawesome.com License - https://fontawesome.com/license (Commercial License) --><path d="M496 160H288v-32h144c8.84 0 16-7.16 16-16V80c0-8.84-7.16-16-16-16H288V16c0-8.84-7.16-16-16-16h-32c-8.84 0-16 7.16-16 16v48H80c-8.84 0-16 7.16-16 16v32c0 8.84 7.16 16 16 16h144v32H16c-8.84 0-16 7.16-16 16v32c0 8.84 7.16 16 16 16h208v32H80c-8.84 0-16 7.16-16 16v32c0 8.84 7.16 16 16 16h144v32H112c-44.18 0-80 35.82-80 80s35.82 80 80 80 80-35.82 80-80c0-5.48-.56-10.83-1.61-16h131.23a80.321 80.321 0 0 0-1.61 16c0 44.18 35.82 80 80 80s80-35.82 80-80-35.82-80-80-80H288v-32h144c8.84 0 16-7.16 16-16v-32c0-8.84-7.16-16-16-16H288v-32h208c8.84 0 16-7.16 16-16v-32c0-8.84-7.16-16-16-16zM112 464c-17.64 0-32-14.36-32-32s14.36-32 32-32 32 14.36 32 32-14.36 32-32 32zm288-64c17.64 0 32 14.36 32 32s-14.36 32-32 32-32-14.36-32-32 14.36-32 32-32z"/></svg>

<svg xmlns="http://www.w3.org/2000/svg" viewBox="0 0 512 512"><!--! Font Awesome Pro 6.0.0-alpha3 by @fontawesome - https://fontawesome.com License - https://fontawesome.com/license (Commercial License) --><path d="M496 160H288V128h144C440.9 128 448 120.9 448 112v-32C448 71.13 440.9 64 432 64H288V16C288 7.125 280.9 0 272 0h-32C231.1 0 224 7.125 224 16V64H80C71.13 64 64 71.13 64 80v32C64 120.9 71.13 128 80 128H224v32H16C7.125 160 0 167.1 0 176v32C0 216.9 7.125 224 16 224H224v32H80C71.13 256 64 263.1 64 272v32C64 312.9 71.13 320 80 320H224v32H112.1c-37.31 0-60.36 40.7-41.16 72.7l43.06 71.77C119.8 506.1 130.2 512 141.4 512h229.2c11.24 0 21.66-5.898 27.44-15.54l43.06-71.77C460.3 392.7 437.2 352 399.9 352H288v-32h144c8.875 0 16-7.125 16-16v-32C448 263.1 440.9 256 432 256H288V224h208C504.9 224 512 216.9 512 208v-32C512 167.1 504.9 160 496 160zM200 464c-13.25 0-24-10.75-24-24S186.7 416 200 416S224 426.7 224 440S213.3 464 200 464zM312 416c13.25 0 24 10.75 24 24s-10.75 24-24 24S288 453.3 288 440S298.7 416 312 416z"/></svg>
